X: 2
P: Rheinl\aender Polka Nr.  19
O: trad Danmark
R: polka
D: Sp\aelimenninir i Hoyd\olum
Z: 1997 by John Chambers <jc@trillian.mit.edu>
M: 2/4
L: 1/16
K: G
Bc \
| "G"dbag "D7"fage | "G"d2B2 B2Bd \
|1,3 "D7"c2A2 ABcd | "G"e2d2 B2Bc :|2,4 "D7"cBAB cdef | "G"g2g2"fine"g2 :| [K:D]
z2 \
|: "D"ffff f2A2 | f2A2 f2A2 | ffff f2a2 | "A7"a2c2 c4 \
| gggg g2A2 | g2A2 g2A2 | gggg g2b2 | "D"b2a2 f4 |
| "D"aaaa a2g2 | "D"ffff f2e2 | dddd d2c2 | "G"B2g2 g4 \
| "D"f2Ad f2f2 | "A7"e2Ac e2e2 | "D"dfa2 "A7"c3a | "D"d2d2d2 :| [K:G]
d2 \
|: "G"d4 B2G2 | "C"g4 f2e2 | "G"e2d2 d2B2 | G6 d2 \
| "D7"d2c2 c2A2 | F6 d2 | f2e2 d2c2 | "G"B6 d2 |
| "G"d4 B2G2 | "C"g4 f2e2 | "G"e2d2 d2B2 | G6 d2 \
| "D7"f3e f3e | e2d2 d2Bc | d2c2 B2A2 | "G"G2B2G2 :|


